X:222
T: Piper O'er the Meadows Straying (A)
N: O'Farrell's Pocket Companion v.3 (Sky ed. p.109)
N: "Irish"
M: C
L: 1/8
R: hornpipe
Q: 280
K: G
B/c/|d3c B2 A2|G2 G2 B2 G2|ABcA G3F| G2 B2 B3A|
d2 c2 B3A| G2 G2 B3G| ABcA G3F| G2 B2 G3 :|
z| A3B c3A| BABc d2 A2| B/c/ d3 e/f/ g3|f2e2d3 B/c/|
dedc BcBA| G2 G2 B3G| AecA G3F| G2 B2 G3 :|
